sabine/images/noise/radio.svg

<?xml version="1.0" encoding="UTF-8" standalone="no"?>
<svg
   xmlns:dc="http://purl.org/dc/elements/1.1/"
   xmlns:cc="http://creativecommons.org/ns#"
   xmlns:rdf="http://www.w3.org/1999/02/22-rdf-syntax-ns#"
   xmlns:svg="http://www.w3.org/2000/svg"
   xmlns="http://www.w3.org/2000/svg"
   id="svg3341"
   version="1.1"
   viewBox="0 0 100 100"
   height="100pt"
   width="100pt">
  <metadata
     id="metadata3352">
    <rdf:RDF>
      <cc:Work
         rdf:about="">
        <dc:format>image/svg+xml</dc:format>
        <dc:type
           rdf:resource="http://purl.org/dc/dcmitype/StillImage" />
        <dc:title></dc:title>
      </cc:Work>
    </rdf:RDF>
  </metadata>
  <defs
     id="defs3350" />
  <g
     transform="matrix(0.88,0,0,0.88,6,6)"
     id="#000000ff">
    <path
       style="opacity:1;fill:#000000"
       id="path3344"
       d="m 84.55,5.82 c 0.65,-3.38 3.72,-6.58 7.41,-5.37 4.41,1.1 5.28,7.62 1.44,9.96 -2.72,2.04 -5.98,0.2 -8.13,-1.74 -21.19,6.41 -42.43,12.62 -63.58,19.16 0.18,0.73 0.54,2.2 0.72,2.93 21.2,-0.03 42.4,0.03 63.61,-0.03 3.09,-0.01 6.41,0.21 9,2.11 2.89,1.88 4.44,5.18 4.98,8.5 l 0,48.31 C 99.29,94.98 95,99.28 89.67,100 l -79.33,0 C 5.02,99.29 0.72,94.99 0,89.67 l 0,-49 C 0.78,36.2 4.11,32.88 8.15,31.1 8.75,29.22 9,27.02 10.64,25.69 13.41,22.84 17.68,24.59 21.09,23.44 42.22,17.48 63.41,11.76 84.55,5.82 M 11.51,38.51 C 11.48,43.57 11.54,48.63 11.46,53.69 28.17,53.74 44.9,53.9 61.61,53.61 61.4,48.58 61.54,43.54 61.49,38.51 44.83,38.5 28.17,38.5 11.51,38.51 m 54,0 c -0.03,5.06 0.04,10.11 -0.06,15.17 7.72,0.08 15.44,0.2 23.16,-0.07 -0.21,-5.03 -0.07,-10.07 -0.12,-15.1 -7.66,-0.01 -15.32,-0.01 -22.98,0 m 6.94,27.14 c -4.3,1.63 -7.34,5.89 -7.63,10.47 -0.62,6.76 5.37,13.2 12.19,12.92 7.18,0.13 13.27,-7.09 11.85,-14.15 -0.99,-7.35 -9.59,-12.2 -16.41,-9.24 m -60.5,0.26 c -1,6.58 -0.22,13.39 -0.43,20.06 -0.52,2.44 3.23,3.66 3.77,1 0.43,-6.29 0.19,-12.63 0.15,-18.93 0.42,-2.09 -1.85,-3.34 -3.49,-2.13 m 7.51,0.34 c -0.42,6.89 -0.22,13.83 -0.11,20.74 -0.04,1.79 3.62,2.05 3.53,0.01 0.18,-6.99 0.28,-14.01 -0.07,-20.99 -1.22,-0.85 -2.34,-0.77 -3.35,0.24 m 7.73,-0.24 c -0.35,7.01 -0.25,14.05 -0.07,21.06 0.04,2 3.58,1.67 3.54,-0.1 0.17,-6.63 0.15,-13.28 0.01,-19.91 0.01,-1.78 -2.34,-2.03 -3.48,-1.05 m 7.37,2.02 c -0.11,5.96 -0.13,11.93 0.01,17.88 -0.38,1.74 1.99,3.72 3.3,1.97 1.05,-1.4 0.49,-3.25 0.66,-4.85 -0.22,-5.82 0.36,-11.67 -0.39,-17.46 -1.75,-0.3 -3.97,0.17 -3.58,2.46 m 8.03,-1.62 c -0.83,5.11 -0.08,10.42 -0.36,15.61 0.27,2.19 -0.93,5.4 1.67,6.54 2.47,0.07 2.41,-2.77 2.37,-4.49 -0.15,-5.66 0.23,-11.34 -0.2,-16.99 0.15,-1.78 -2.86,-2.42 -3.48,-0.67 m 7.52,0.52 c -0.26,6.38 -0.08,12.78 -0.09,19.17 -0.38,2.16 2.27,2.87 3.7,1.72 -0.01,-6.94 0.13,-13.89 -0.04,-20.83 0.21,-2.01 -3.47,-2.12 -3.57,-0.06 z" />
    <path
       style="opacity:1;fill:#000000"
       id="path3346"
       d="m 74.3,70.45 c 4.78,-2.17 10.67,2.55 9.43,7.71 -0.59,5.34 -8.1,7.66 -11.68,3.72 -3.59,-3.27 -2.25,-9.73 2.25,-11.43 z" />
  </g>
</svg>

<?xml version="1.0" encoding="UTF-8" ?>
<!DOCTYPE svg PUBLIC "-//W3C//DTD SVG 1.1//EN" "http://www.w3.org/Graphics/SVG/1.1/DTD/svg11.dtd">
<svg width="100pt" height="100pt" viewBox="0 0 100 100" version="1.1" xmlns="http://www.w3.org/2000/svg">
<g id="#000000ff">
<path fill="#000000" opacity="1.00" d=" M 84.55 5.82 C 85.20 2.44 88.27 -0.76 91.96 0.45 C 96.37 1.55 97.24 8.07 93.40 10.41 C 90.68 12.45 87.42 10.61 85.27 8.67 C 64.08 15.08 42.84 21.29 21.69 27.83 C 21.87 28.56 22.23 30.03 22.41 30.76 C 43.61 30.73 64.81 30.79 86.02 30.73 C 89.11 30.72 92.43 30.94 95.02 32.84 C 97.91 34.72 99.46 38.02 100.00 41.34 L 100.00 89.65 C 99.29 94.98 95.00 99.28 89.67 100.00 L 10.34 100.00 C 5.02 99.29 0.72 94.99 0.00 89.67 L 0.00 40.67 C 0.78 36.20 4.11 32.88 8.15 31.10 C 8.75 29.22 9.00 27.02 10.64 25.69 C 13.41 22.84 17.68 24.59 21.09 23.44 C 42.22 17.48 63.41 11.76 84.55 5.82 M 11.51 38.51 C 11.48 43.57 11.54 48.63 11.46 53.69 C 28.17 53.74 44.90 53.90 61.61 53.61 C 61.40 48.58 61.54 43.54 61.49 38.51 C 44.83 38.50 28.17 38.50 11.51 38.51 M 65.51 38.51 C 65.48 43.57 65.55 48.62 65.45 53.68 C 73.17 53.76 80.89 53.88 88.61 53.61 C 88.40 48.58 88.54 43.54 88.49 38.51 C 80.83 38.50 73.17 38.50 65.51 38.51 M 72.45 65.65 C 68.15 67.28 65.11 71.54 64.82 76.12 C 64.20 82.88 70.19 89.32 77.01 89.04 C 84.19 89.17 90.28 81.95 88.86 74.89 C 87.87 67.54 79.27 62.69 72.45 65.65 M 11.95 65.91 C 10.95 72.49 11.73 79.30 11.52 85.97 C 11.00 88.41 14.75 89.63 15.29 86.97 C 15.72 80.68 15.48 74.34 15.44 68.04 C 15.86 65.95 13.59 64.70 11.95 65.91 M 19.46 66.25 C 19.04 73.14 19.24 80.08 19.35 86.99 C 19.31 88.78 22.97 89.04 22.88 87.00 C 23.06 80.01 23.16 72.99 22.81 66.01 C 21.59 65.16 20.47 65.24 19.46 66.25 M 27.19 66.01 C 26.84 73.02 26.94 80.06 27.12 87.07 C 27.16 89.07 30.70 88.74 30.66 86.97 C 30.83 80.34 30.81 73.69 30.67 67.06 C 30.68 65.28 28.33 65.03 27.19 66.01 M 34.56 68.03 C 34.45 73.99 34.43 79.96 34.57 85.91 C 34.19 87.65 36.56 89.63 37.87 87.88 C 38.92 86.48 38.36 84.63 38.53 83.03 C 38.31 77.21 38.89 71.36 38.14 65.57 C 36.39 65.27 34.17 65.74 34.56 68.03 M 42.59 66.41 C 41.76 71.52 42.51 76.83 42.23 82.02 C 42.50 84.21 41.30 87.42 43.90 88.56 C 46.37 88.63 46.31 85.79 46.27 84.07 C 46.12 78.41 46.50 72.73 46.07 67.08 C 46.22 65.30 43.21 64.66 42.59 66.41 M 50.11 66.93 C 49.85 73.31 50.03 79.71 50.02 86.10 C 49.64 88.26 52.29 88.97 53.72 87.82 C 53.71 80.88 53.85 73.93 53.68 66.99 C 53.89 64.98 50.21 64.87 50.11 66.93 Z" />
<path fill="#000000" opacity="1.00" d=" M 74.30 70.45 C 79.08 68.28 84.97 73.00 83.73 78.16 C 83.14 83.50 75.63 85.82 72.05 81.88 C 68.46 78.61 69.80 72.15 74.30 70.45 Z" />
</g>
</svg>
